projects/online-help/images/nll-logo.svg

<svg enable-background="new 0 0 100 100" viewBox="0 0 100 100" xmlns="http://www.w3.org/2000/svg"><path d="m34.4000015 19.8893337c18.3962212 0 22.9415779 44.3098831 34.401001 44.3098831 14.3988876.000002 31.1989975-49.3988838 31.1989975-54.7992172 0-6.0026662-3.3984451-9.3999996-9.4032211-9.3999996h-81.1967793c-6.0015552 0-9.3999996 3.3973334-9.3999996 9.3999996v65.6868134c6.4007778-27.5965901 20.399334-55.1974793 34.4000015-55.1974793zm31.1967774 60.2213536c-18.3984222 0-22.8851891-44.3099098-34.3966675-44.3099098-14.3999996-.0000001-31.2001114 49.3988914-31.2001114 54.7971076 0 6.0036698 3.3984444 9.4021149 9.3999996 9.4021149h81.1967773c6.004778 0 9.4032231-3.3984451 9.4032231-9.4021149v-65.6846637c-6.3964462 27.5954456-20.3993301 55.1974659-34.4032211 55.1974659z" fill="#fff"/></svg>

<?xml version="1.0" encoding="utf-8"?>
<!-- Generator: Adobe Illustrator 21.0.0, SVG Export Plug-In . SVG Version: 6.00 Build 0)  -->
<svg version="1.1" id="Layer_1" xmlns="http://www.w3.org/2000/svg" xmlns:xlink="http://www.w3.org/1999/xlink" x="0px" y="0px"
	 viewBox="0 0 100 100" enable-background="new 0 0 100 100" xml:space="preserve">
<path fill="#FFFFFF" d="M34.4000015,19.8893337c18.3962212,0,22.9415779,44.3098831,34.401001,44.3098831
	C83.1998901,64.1992188,100,14.800333,100,9.3999996C100,3.3973334,96.6015549,0,90.5967789,0H9.3999996
	C3.3984444,0,0,3.3973334,0,9.3999996v65.6868134C6.4007778,47.4902229,20.399334,19.8893337,34.4000015,19.8893337
	L34.4000015,19.8893337z M65.5967789,80.1106873c-18.3984222,0-22.8851891-44.3099098-34.3966675-44.3099098
	C16.8001118,35.8007774,0,85.1996689,0,90.5978851C0,96.6015549,3.3984444,100,9.3999996,100h81.1967773
	C96.6015549,100,100,96.6015549,100,90.5978851V24.9132214C93.6035538,52.508667,79.6006699,80.1106873,65.5967789,80.1106873z"/>
<g>
</g>
<g>
</g>
<g>
</g>
<g>
</g>
<g>
</g>
</svg>
